blog/2022/05-17-a-walk-in-the-graph/img/droplet_load_balancer.svg

<svg xmlns="http://www.w3.org/2000/svg" xmlns:xlink="http://www.w3.org/1999/xlink" width="552" height="52" contentScriptType="application/ecmascript" contentStyleType="text/css" style="width:552px;height:52px;background:#00000000" preserveAspectRatio="none" version="1.1" viewBox="0 0 552 52" zoomAndPan="magnify"><g><rect id="digitalocean_load_balancer" width="267" height="39.789" x="7" y="7" fill="#3D176E" codeLine="20" rx="2.5" ry="2.5" style="stroke:#000d19;stroke-width:1.5"/><ellipse cx="22" cy="26.895" fill="#E98DF7" rx="11" ry="11" style="stroke:#000d19;stroke-width:1"/><path fill="#000" d="M24.9688,32.5352 Q24.3906,32.832 23.75,32.9727 Q23.1094,33.1289 22.4063,33.1289 Q19.9063,33.1289 18.5781,31.4883 Q17.2656,29.832 17.2656,26.707 Q17.2656,23.582 18.5781,21.9258 Q19.9063,20.2695 22.4063,20.2695 Q23.1094,20.2695 23.75,20.4258 Q24.4063,20.582 24.9688,20.8789 L24.9688,23.5977 Q24.3438,23.0195 23.75,22.7539 Q23.1563,22.4727 22.5313,22.4727 Q21.1875,22.4727 20.5,23.5508 Q19.8125,24.6133 19.8125,26.707 Q19.8125,28.8008 20.5,29.8789 Q21.1875,30.9414 22.5313,30.9414 Q23.1563,30.9414 23.75,30.6758 Q24.3438,30.3945 24.9688,29.8164 L24.9688,32.5352 Z"/><text x="41" y="32.78" fill="#D9B8FF" font-family="Helvetica" font-size="17" lengthAdjust="spacing" textLength="225">digitalocean_load_balancer</text><rect id="digitalocean_droplet" width="211" height="39.789" x="334" y="7" fill="#3D176E" codeLine="23" rx="2.5" ry="2.5" style="stroke:#000d19;stroke-width:1.5"/><ellipse cx="349" cy="26.895" fill="#E98DF7" rx="11" ry="11" style="stroke:#000d19;stroke-width:1"/><path fill="#000" d="M351.9688,32.5352 Q351.3906,32.832 350.75,32.9727 Q350.1094,33.1289 349.4063,33.1289 Q346.9063,33.1289 345.5781,31.4883 Q344.2656,29.832 344.2656,26.707 Q344.2656,23.582 345.5781,21.9258 Q346.9063,20.2695 349.4063,20.2695 Q350.1094,20.2695 350.75,20.4258 Q351.4063,20.582 351.9688,20.8789 L351.9688,23.5977 Q351.3438,23.0195 350.75,22.7539 Q350.1563,22.4727 349.5313,22.4727 Q348.1875,22.4727 347.5,23.5508 Q346.8125,24.6133 346.8125,26.707 Q346.8125,28.8008 347.5,29.8789 Q348.1875,30.9414 349.5313,30.9414 Q350.1563,30.9414 350.75,30.6758 Q351.3438,30.3945 351.9688,29.8164 L351.9688,32.5352 Z"/><text x="368" y="32.78" fill="#D9B8FF" font-family="Helvetica" font-size="17" lengthAdjust="spacing" textLength="169">digitalocean_droplet</text><path id="digitalocean_droplet-to-digitalocean_load_balancer" fill="none" d="M333.82,14.04 C316.24,13.59 297.77,13.43 279.51,13.53" codeLine="26" style="stroke:#ffaf37;stroke-width:2"/><polygon fill="#FFAF37" points="274.36 13.57 283.394 17.493 279.36 13.527 283.325 9.493 274.36 13.57" style="stroke:#ffaf37;stroke-width:2"/><path id="digitalocean_load_balancer-to-digitalocean_droplet" fill="none" d="M274.36,39.69 C292.42,39.83 310.79,39.73 328.38,39.36" codeLine="27" style="stroke:#1a83af;stroke-width:2"/><polygon fill="#1A83AF" points="333.82 39.24 324.731 35.447 328.821 39.354 324.914 43.445 333.82 39.24" style="stroke:#1a83af;stroke-width:2"/></g></svg>

<svg xmlns="http://www.w3.org/2000/svg" width="552" height="52" preserveAspectRatio="none" style="width:552px;height:52px;background:#00000000"><rect width="267" height="39.789" x="7" y="7" fill="#3D176E" rx="2.5" ry="2.5" style="stroke:#000d19;stroke-width:1.5"/><circle cx="22" cy="26.895" r="11" fill="#E98DF7" style="stroke:#000d19;stroke-width:1"/><path d="M24.969 32.535q-.578.297-1.219.438-.64.156-1.344.156-2.5 0-3.828-1.64-1.312-1.657-1.312-4.782t1.312-4.781q1.328-1.656 3.828-1.656.703 0 1.344.156.656.156 1.219.453v2.719q-.625-.578-1.219-.844-.594-.281-1.219-.281-1.343 0-2.031 1.078-.688 1.062-.688 3.156 0 2.094.688 3.172.688 1.062 2.031 1.062.625 0 1.219-.265.594-.281 1.219-.86v2.72Z"/><text x="41" y="32.78" fill="#D9B8FF" font-family="Helvetica" font-size="17" textLength="225">digitalocean_load_balancer</text><rect width="211" height="39.789" x="334" y="7" fill="#3D176E" rx="2.5" ry="2.5" style="stroke:#000d19;stroke-width:1.5"/><circle cx="349" cy="26.895" r="11" fill="#E98DF7" style="stroke:#000d19;stroke-width:1"/><path d="M351.969 32.535q-.578.297-1.219.438-.64.156-1.344.156-2.5 0-3.828-1.64-1.312-1.657-1.312-4.782t1.312-4.781q1.328-1.656 3.828-1.656.703 0 1.344.156.656.156 1.219.453v2.719q-.625-.578-1.219-.844-.594-.281-1.219-.281-1.344 0-2.031 1.078-.688 1.062-.688 3.156 0 2.094.688 3.172.688 1.062 2.031 1.062.625 0 1.219-.265.594-.281 1.219-.86v2.72Z"/><text x="368" y="32.78" fill="#D9B8FF" font-family="Helvetica" font-size="17" textLength="169">digitalocean_droplet</text><path fill="none" d="M333.82 14.04c-17.58-.45-36.05-.61-54.31-.51" style="stroke:#ffaf37;stroke-width:2"/><path fill="#FFAF37" d="m274.36 13.57 9.034 3.923-4.034-3.966 3.965-4.034-8.965 4.077z" style="stroke:#ffaf37;stroke-width:2"/><path fill="none" d="M274.36 39.69c18.06.14 36.43.04 54.02-.33" style="stroke:#1a83af;stroke-width:2"/><path fill="#1A83AF" d="m333.82 39.24-9.089-3.793 4.09 3.907-3.907 4.091 8.906-4.205z" style="stroke:#1a83af;stroke-width:2"/></svg>
